Obsidian-SemiLight/actions/22s/kdenlive-custom-effect.svg

<svg viewBox="0 0 22 22" xmlns="http://www.w3.org/2000/svg"><path d="m11 3-3 6h-5l4 4-1 6 5-3s4.0109-2.9893 4-3l4-4h-5zm7 8-1 1-5 5v1 1h2l1-1 4-4 1-1zm-.28125 1.6875.5625.59375-4.96875 5-.59375-.59375z" fill="#4d4d4d"/></svg>

<svg xmlns="http://www.w3.org/2000/svg" viewBox="0 0 22 22">
  <defs id="defs3051">
    <style type="text/css" id="current-color-scheme">
      .ColorScheme-Text {
        color:#4d4d4d;
      }
      </style>
  </defs>
 <path 
     style="fill:currentColor;fill-opacity:1;stroke:none" 
     d="M 11 3 L 8 9 L 3 9 L 7 13 L 6 19 L 11 16 C 11 16 15.0109 13.0107 15 13 L 19 9 L 14 9 L 11 3 z M 18 11 L 17 12 L 12 17 L 12 18 L 12 19 L 14 19 L 15 18 L 19 14 L 20 13 L 18 11 z M 17.71875 12.6875 L 18.28125 13.28125 L 13.3125 18.28125 L 12.71875 17.6875 L 17.71875 12.6875 z "
     class="ColorScheme-Text"
     />
</svg>
